X: 1
T:Terri Reilly's Jig
M:6/8
L:1/8
C:Stephen McNally
K:AMix
|:e>ee c>de|g>Ae f>Ad|e>ee c>de|d>dd G>Bd|
e>ee c>de|g>Ae f>Ad|c>Bc A>Bc|d>BG A>AA:|
|:c>=cB A2E|G>AB d>Bg|a>bg e2d|e2d e>ga|
b>c'c' c'>=c'b|a>bg e2d|e2d g>dB|d>BG A>AA:|

% Output from ABC2Win  Version 2.1 i on 25/11/2004
